docs/img/road/auto.svg

<svg width="20" height="20" viewBox="0 0 20 20" fill="none" xmlns="http://www.w3.org/2000/svg">
<path d="M14 17H6V18.5C6 18.8978 5.84196 19.2794 5.56066 19.5607C5.27936 19.842 4.89782 20 4.5 20H3.5C3.10218 20 2.72064 19.842 2.43934 19.5607C2.15804 19.2794 2 18.8978 2 18.5V16.83C1.41493 16.623 0.908421 16.2397 0.55024 15.7329C0.192059 15.226 -0.000178928 14.6206 1.24966e-07 14V11C1.24966e-07 10.38 0.188 9.804 0.51 9.326L1.596 2.526C1.70878 1.82119 2.06916 1.17967 2.61242 0.716693C3.15568 0.253712 3.84622 -0.000399861 4.56 4.72298e-07H15.44C16.1532 0.000589451 16.8429 0.255273 17.3854 0.718371C17.9278 1.18147 18.2875 1.82268 18.4 2.527L19.483 9.317C19.809 9.797 19.999 10.377 19.999 11V14C19.9992 14.6206 19.8069 15.226 19.4488 15.7329C19.0906 16.2397 18.5841 16.623 17.999 16.83V18.5C17.999 18.8978 17.841 19.2794 17.5597 19.5607C17.2784 19.842 16.8968 20 16.499 20H15.499C15.1012 20 14.7196 19.842 14.4383 19.5607C14.157 19.2794 13.999 18.8978 13.999 18.5V17H14ZM3 15H17C17.2652 15 17.5196 14.8946 17.7071 14.7071C17.8946 14.5196 18 14.2652 18 14V11C18 10.7348 17.8946 10.4804 17.7071 10.2929C17.5196 10.1054 17.2652 10 17 10H3C2.73478 10 2.48043 10.1054 2.29289 10.2929C2.10536 10.4804 2 10.7348 2 11V14C2 14.2652 2.10536 14.5196 2.29289 14.7071C2.48043 14.8946 2.73478 15 3 15ZM17.25 8.01L16.426 2.842C16.3885 2.6074 16.2686 2.39383 16.088 2.23955C15.9073 2.08526 15.6776 2.00034 15.44 2H4.559C4.32107 1.99987 4.09089 2.08457 3.90981 2.2389C3.72872 2.39322 3.60859 2.60706 3.571 2.842L2.746 8.011C2.83048 8.00379 2.91522 8.00012 3 8H17C17.084 8 17.168 8.003 17.25 8.01ZM15.5 12C15.3674 12 15.2402 12.0527 15.1464 12.1464C15.0527 12.2402 15 12.3674 15 12.5C15 12.6326 15.0527 12.7598 15.1464 12.8536C15.2402 12.9473 15.3674 13 15.5 13C15.6326 13 15.7598 12.9473 15.8536 12.8536C15.9473 12.7598 16 12.6326 16 12.5C16 12.3674 15.9473 12.2402 15.8536 12.1464C15.7598 12.0527 15.6326 12 15.5 12ZM15.5 14C15.303 14 15.108 13.9612 14.926 13.8858C14.744 13.8104 14.5786 13.6999 14.4393 13.5607C14.3001 13.4214 14.1896 13.256 14.1142 13.074C14.0388 12.892 14 12.697 14 12.5C14 12.303 14.0388 12.108 14.1142 11.926C14.1896 11.744 14.3001 11.5786 14.4393 11.4393C14.5786 11.3001 14.744 11.1896 14.926 11.1142C15.108 11.0388 15.303 11 15.5 11C15.8978 11 16.2794 11.158 16.5607 11.4393C16.842 11.7206 17 12.1022 17 12.5C17 12.8978 16.842 13.2794 16.5607 13.5607C16.2794 13.842 15.8978 14 15.5 14ZM4.5 12C4.36739 12 4.24021 12.0527 4.14645 12.1464C4.05268 12.2402 4 12.3674 4 12.5C4 12.6326 4.05268 12.7598 4.14645 12.8536C4.24021 12.9473 4.36739 13 4.5 13C4.63261 13 4.75979 12.9473 4.85355 12.8536C4.94732 12.7598 5 12.6326 5 12.5C5 12.3674 4.94732 12.2402 4.85355 12.1464C4.75979 12.0527 4.63261 12 4.5 12ZM4.5 14C4.30302 14 4.10796 13.9612 3.92598 13.8858C3.74399 13.8104 3.57863 13.6999 3.43934 13.5607C3.30005 13.4214 3.18956 13.256 3.11418 13.074C3.0388 12.892 3 12.697 3 12.5C3 12.303 3.0388 12.108 3.11418 11.926C3.18956 11.744 3.30005 11.5786 3.43934 11.4393C3.57863 11.3001 3.74399 11.1896 3.92598 11.1142C4.10796 11.0388 4.30302 11 4.5 11C4.89782 11 5.27936 11.158 5.56066 11.4393C5.84196 11.7206 6 12.1022 6 12.5C6 12.8978 5.84196 13.2794 5.56066 13.5607C5.27936 13.842 4.89782 14 4.5 14ZM5.204 3.094C5.46922 3.094 5.72357 3.19936 5.91111 3.38689C6.09864 3.57443 6.204 3.82878 6.204 4.094V6.094C6.204 6.35922 6.09864 6.61357 5.91111 6.80111C5.72357 6.98864 5.46922 7.094 5.204 7.094C4.93878 7.094 4.68443 6.98864 4.49689 6.80111C4.30936 6.61357 4.204 6.35922 4.204 6.094V4.094C4.204 3.82878 4.30936 3.57443 4.49689 3.38689C4.68443 3.19936 4.93878 3.094 5.204 3.094Z" fill="black" fill-opacity="0.5"/>
</svg>

<svg width="20" height="20" fill="none" xmlns="http://www.w3.org/2000/svg"><path d="M14 17H6v1.5A1.5 1.5 0 0 1 4.5 20h-1A1.5 1.5 0 0 1 2 18.5v-1.67A3.001 3.001 0 0 1 0 14v-3c0-.62.188-1.196.51-1.674l1.086-6.8A3 3 0 0 1 4.56 0h10.88a3 3 0 0 1 2.96 2.527l1.083 6.79c.326.48.516 1.06.516 1.683v3a3.002 3.002 0 0 1-2 2.83v1.67a1.5 1.5 0 0 1-1.5 1.5h-1a1.5 1.5 0 0 1-1.5-1.5V17H14zM3 15h14a1 1 0 0 0 1-1v-3a1 1 0 0 0-1-1H3a1 1 0 0 0-1 1v3a1 1 0 0 0 1 1zm14.25-6.99l-.824-5.168A1 1 0 0 0 15.44 2H4.559a1 1 0 0 0-.988.842l-.825 5.169c.084-.007.17-.01.254-.011h14c.084 0 .168.003.25.01zM15.5 12a.5.5 0 1 0 0 1 .5.5 0 0 0 0-1zm0 2a1.5 1.5 0 1 1 0-3 1.5 1.5 0 0 1 0 3zm-11-2a.5.5 0 1 0 0 1 .5.5 0 0 0 0-1zm0 2a1.5 1.5 0 1 1 0-3 1.5 1.5 0 0 1 0 3zm.704-10.906a1 1 0 0 1 1 1v2a1 1 0 0 1-2 0v-2a1 1 0 0 1 1-1z" fill="#000" fill-opacity=".5"/></svg>
